X:263
T:New Policeman
Z: id:dc-reel-243
M:C
L:1/8
K:D Major
A,|D2FA D2FA|defe dBBA|B2AF ABde|f2ed fee2|!
dAA2 DEFA|d2fe dBBA|B2AF ABdB|AFEG FDD:|!
e|faaf afdf|gfed cdef|g2gf gbag|fagf e3f|!
dBB2 AFF2|DFF2 ABdf|afef dBAF|A2ag fdd:|!

